lib/preview/nrk-logo-preview-nrk-tv-on-light.svg

<svg width="60" height="14" viewBox="0 0 60 14" fill="none" xmlns="http://www.w3.org/2000/svg">
<path d="M0 12.9977V0.998771H3.93719V12.9977H0ZM9.29381 2.90846L11.5581 12.9977H7.24917L4.54549 0.998771H6.96218C7.51635 0.991579 8.05406 1.18693 8.4745 1.54807C8.89562 1.89406 9.18495 2.37438 9.29381 2.90846ZM12.1495 12.9977V0.998771H16.0867V12.9977H12.1495ZM19.0605 5.56178C18.6362 5.56592 18.2188 5.45491 17.8525 5.24065C17.4912 5.0318 17.1911 4.73164 16.9823 4.37028C16.7678 4.00401 16.6568 3.58644 16.661 3.162C16.6561 2.74014 16.7672 2.32506 16.9823 1.96211C17.1933 1.60467 17.4931 1.30777 17.8525 1.1002C18.2189 0.886183 18.6362 0.775195 19.0605 0.779065C19.4822 0.774523 19.8971 0.885609 20.2602 1.1002C20.616 1.30959 20.9127 1.60624 21.122 1.96211C21.3368 2.32516 21.4479 2.74017 21.4433 3.162C21.4473 3.58641 21.3363 4.00391 21.122 4.37028C20.9149 4.73006 20.6179 5.02996 20.2602 5.24065C19.8971 5.45566 19.4819 5.56677 19.0599 5.56178H19.0605ZM22.0516 12.9977V0.998771H25.9892V12.9977H22.0516ZM30.9737 7.55591C30.9848 7.56756 31.0693 7.70556 31.2272 7.96995C31.3851 8.23434 31.5906 8.57237 31.8439 8.98397C32.0974 9.39539 32.3649 9.83194 32.6463 10.2937C32.9278 10.7554 33.1926 11.192 33.4408 11.6035C33.6881 12.0149 33.9697 12.4796 34.2857 12.9977H29.9598C29.6893 12.5583 29.4441 12.1611 29.2245 11.8062C29.0048 11.4514 28.7713 11.0683 28.5238 10.657C28.2758 10.2462 28.0306 9.84622 27.7882 9.45715C27.5458 9.06807 27.3375 8.72729 27.1633 8.43474C26.9883 8.142 26.8671 7.9448 26.7997 7.84322C26.6325 7.59113 26.5336 7.29998 26.5127 6.99823C26.5294 6.70862 26.6226 6.42866 26.7828 6.18679C26.8504 6.07413 26.9743 5.87411 27.1545 5.58681C27.3348 5.29951 27.546 4.95873 27.7882 4.5644C28.0304 4.17007 28.2756 3.76728 28.5238 3.35606C28.772 2.94483 29.0056 2.55892 29.2245 2.19839C29.4445 1.83823 29.6897 1.43827 29.9598 0.998496H34.2857L30.9396 6.45718C30.8361 6.61925 30.7777 6.80603 30.7706 6.99823C30.7818 7.2 30.8522 7.394 30.9731 7.55591H30.9737Z" fill="#0A2343"/>
<path d="M38.8571 2.5025H42.7533V12.9793H44.5398V2.5025H48.419V1.02026H38.8571V2.5025Z" fill="#1767CE"/>
<path d="M57.8107 1.02026L55.2757 8.46516C55.1503 8.84694 55.0226 9.25119 54.8926 9.6779C54.7625 10.1046 54.6378 10.5313 54.5185 10.958C54.4567 11.1783 54.3974 11.3909 54.3407 11.5958C54.2812 11.3794 54.2185 11.1565 54.1527 10.9243C54.0274 10.4864 53.8997 10.0513 53.7696 9.61895C53.6396 9.18662 53.5063 8.77957 53.3698 8.39778L50.8857 1.02026H48.9802L53.1656 12.9793H55.3775L59.5799 1.02026H57.8107Z" fill="#1767CE"/>
</svg>

<svg xmlns="http://www.w3.org/2000/svg" viewBox="0 0 60 14"><path fill="#0A2343" d="M0 12.998v-12h3.937v12H0Zm9.294-10.09 2.264 10.09H7.25l-2.704-12h2.417a2.276 2.276 0 0 1 1.513.55c.42.346.71.826.819 1.36Zm2.855 10.09v-12h3.938v12h-3.938Zm6.912-7.436a2.382 2.382 0 0 1-2.4-2.4 2.301 2.301 0 0 1 .321-1.2A2.41 2.41 0 0 1 20.26 1.1c.356.21.653.506.862.862.215.363.326.778.321 1.2a2.35 2.35 0 0 1-.321 1.208 2.4 2.4 0 0 1-.862.87 2.302 2.302 0 0 1-1.2.322Zm2.99 7.436v-12h3.938v12h-3.937Zm8.923-5.442c.01.012.095.15.253.414s.364.602.617 1.014a313.388 313.388 0 0 1 1.597 2.62c.247.41.529.876.845 1.394H29.96c-.27-.44-.516-.837-.736-1.192-.22-.355-.453-.738-.7-1.149-.248-.41-.493-.81-.736-1.2-.242-.389-.45-.73-.625-1.022a17.98 17.98 0 0 0-.363-.592 1.747 1.747 0 0 1-.287-.845c.016-.29.11-.57.27-.811.067-.113.191-.313.371-.6s.392-.628.634-1.023c.242-.394.488-.797.736-1.208l.7-1.158.736-1.2h4.326l-3.346 5.46a1.08 1.08 0 0 0-.17.54c.012.202.082.396.203.558Z"/><path fill="#1767CE" d="M38.857 2.502h3.896V12.98h1.787V2.503h3.879V1.02h-9.562v1.482ZM57.81 1.02l-2.534 7.445a58.902 58.902 0 0 0-.758 2.493l-.177.638a89.67 89.67 0 0 0-.571-1.977c-.13-.432-.264-.84-.4-1.221L50.886 1.02H48.98l4.186 11.96h2.212L59.58 1.02h-1.77Z"/></svg>
